X:1
T:정주나요
T:정주나요
T:글리 정말 10조! (베이스 Pt)
L:1/8
Q:3/8=66
M:6/8
K:F
V:1 bass nm="Classical Guitar" snm="Guit."
V:1
 F,F,F, F, z z | D,D,D, D, z z | G,G,G, G, z z | C,6 | F,F,F, F, z z | D,D,D, D, z z | %6
w: 슈 비 루 밥|슈 비 루 밥|슈 비 루 밥||슈 비 루 밥|슈 비 루 밥|
 G,G,G, G, z z | C,6 | CCC C z2 | CCC C z2 | DDD D z2 | B,6 | CCC C z2 | CCC C z2 | DDD D z2 | %15
w: 슈 비 루 밥||슈 비 루 밥|슈 비 루 밥|슈 비 루 밥||슈 비 루 밥|슈 비 루 밥|슈 비 루 밥|
 (E,3 A,,3) | (A,6 | A,6) | ((B,6 | B,3) A,3) | (A,6 | D3 C3) | B,6- | B,6- | B,3 z z2 | z6 | z6 || %27
w: 아- *|아-||아-||흠||흠|||||
[K:Ab][M:4/4][Q:1/4=138] z8 | C2 CC B,A,A,F, | A,2 A,2 B,2 A,B, | C2 CC ECB,A, | A,2 C2 B,2 z2 | %32
w: |첫 눈 에 반 해 버 린|그 대 여 나 를|첫 눈 에 사 로 잡 은|그 대 여|
 C2 C2 C2 C2 | B,2 A,2 B,2 C2 | A,8 | z F,F,F, (3F,2 F,2 F,2 | D,4 D,4- | D,4 z4 || %38
w: 내 마 음 을|받 아 준 다|면|후 회 하 진 않 을|거 야||
 A,2 A,2 F, F,2 F,- | F, A,2 F, E,2 E,2 | A,2 A,2 F, F,2 F,- | F, B,,2 B,, E,2 z2 | %42
w: 정 주 나 요 안-|* 정 주 나 요|늘 정 주 는 날-|* 알 아 줘|
 A,2 A,2 F, F,2 F,- | F, A,2 F, E,2 E,2 | D,8- | D,4 E,2 E,2 ||[K:F] z8 | z8 | z8 | z8 | z8 | z8 | %52
w: 정 주 나 요 안-|* 정 주 나 요|아|* 후 후|||||||
 z8 | z8 | z2 z C- CCA,A, | G, F,2 G,- G, A,2 F,- | F,2 z C- CCA,A, | G,2 G,A,- A,G, F,2 | %58
w: ||불- * 의 는 또|내 가 못- * 참 지-|* 의- * 리 는 또|형 이 최- * 고 지|
 z2 F,2 F,F,E,E, | E,2 D,E,- E, F,3 | z B,B,B, B,B,A,A, | G,2 A,A, A,A, z2 || C3 C B,_A, z B, | %63
w: 널 굶 길 일 은|없 을- * 거 야|지 상 최 고 의 식 신|남 더 주 세 요|오 my ba be *|
 C2 CC B,_A, z2 | _A,2 A,A, C,C,C,C, | ._D,2 D,2 _E,4 | _D,3 D, D, D,2 D, | _D,2 D,D, D, D,2 D, | %68
w: 해 치 지 않 아|겁 내 지 말 고 내 게|다 가 와|이 래 뵈 도 나|귀 여 운 남 자 야|
 z _E,E,E, E,E,F,E, | z8 | C2 CC B,_A,A,F, | _A,2 A,2 B,2 A,B, | C2 CC CCB,_A, | _A,2 C2 B,2 z2 | %74
w: 질 펀 한 엉 덩 이 로||한 떨 기 장 미 같 은|그 대 여 내 게|한 뿌 리 산 삼 같 은|그 대 여|
 _A,2 A,2 C,2 C,2 | _D,2 D,2 _E,2 E,2 | _A,8 | z F,F,F, (3F,2 F,2 F,2 | _D,4 D,4- | D,4 z4 || %80
w: 내 마 음 을|받 아 준 다|면|후 회 하 진 않 을|거 야||
[K:F] z8 | z8 | z8 | z8 | z8 | z8 | z8 | z8 | C3 C B,_A, z B, | C2 CC B,_A, z2 | %90
w: ||||||||오 my ba be 널|놓 치 지 않 아아|
 _A,2 A,A, C,C,C,C, | ._D,2 D,2 _E,4 | _D,3 D, D, D,2 D, | _D,2 D,D, D, D,2 D, | %94
w: 널 위 해 목 숨 바 칠|한 남 자|이 래 뵈 도 나|뜨 거 운 남 자 야|
 z _E,E,E, E,E,F,E, | z8 | C2 CC B,_A,A,F, | _A,2 A,2 B,2 A,B, | C2 CC CCB,_A, | _A,2 C2 B,2 z2 | %100
w: 섹 시 한 콧 소 리 로||한 여 름 빙 수 같 은|그 대 여 내 게|한 겨 울 호 빵 같 은|그 대 여|
 _A,2 A,2 C,2 C,2 | _D,2 D,2 _E,2 E,2 | _A,8 | z F,F,F, (3F,2 F,2 F,2 | _D,4 D,4- | D,4 z4 | %106
w: 내 마 음 을|받 아 준 다|면|후 회 하 진 않 을|거 야||
 C2 C2 C C2 C- | C C2 _D _E2 D2 | C2 C2 C C2 C- | C F2 _E _D2 z2 | C2 C2 C C2 C- | C C2 _D _E2 D2 | %112
w: 정 주 나 요 안-|* 정 주 나 요|늘 정 주 는 날-|* 알 아 줘|정 주 나 요 안-|* 정 주 나 요|
 _D8- | D4 z2 z2 ||[K:Bb] B,2 B,2 G, G,2 C,- | C, C,2 C, F,2 F,2 | B,,2 A,,2 G,, G,,2 C,- | %117
w: 아-||정 주 나 요 안-|* 정 주 나 요|늘 정 주 는 날-|
 C, C,2 C, F,2 z2 | B,,2 B,,2 G,, G,,2 C,- | C, C,2 C, F,2 F,2 | E,8- | E,4 z2 z2 || %122
w: * 알 아 줘|정 주 나 요 안-|* 정 주 나 요|아-||
[K:C] C2 C2 A, A,2 A,- | A, C2 A, G,2 G,2 | C2 C2 A, A,2 A,- | A, D,2 D, G,2 z2 | %126
w: 정 주 나 요 안-|* 정 주 나 요|늘 정 주 는 날-|* 알 아 줘|
 C2 C2 A, A,2 A,- | A, C2 A, G,2 G,2 | F,8- | F,4 z2 z2 ||[K:D] A,2 A,2 B, B,2 B,- | %131
w: 정 주 나 요 안-|* 정 주 나 요|아-||정 주 나 요 안-|
 B, B,2 B, B,2 A,2 | A,2 A,2 B, B,2 B,- | B, B,2 B, A,2 z2 | A,2 A,2 B, B,2 B,- | %135
w: * 정 주 나 요|늘 정 주 는 날-|* 알 아 줘|정 주 나 요 안-|
 B, B,2 B, B,2 A,2 | G,8 | G,4 G,4 | D8- | D8- | D8 | z8 |] %142
w: * 정 주 나 요|날-|알 아|줘||||

